X: 44
T: VALSE DU DAUPHINE
M: 3/4
L: 1/8
Q:1/4=88
K:C
|:DGB d3|cde d2B|1GBd c2A|FAc B2G:|2GBd cAF|AcB G3|!
|:D2G cBA|GFE D3|EFG AFA|1cBA B2G:|2cBA G3|
